assets/hotel.svg

<?xml version="1.0" encoding="utf-8"?>
<!-- Generator: Adobe Illustrator 21.1.0, SVG Export Plug-In . SVG Version: 6.00 Build 0)  -->
<svg version="1.1" id="Layer_1" xmlns="http://www.w3.org/2000/svg" xmlns:xlink="http://www.w3.org/1999/xlink" x="0px" y="0px"
	 viewBox="0 0 20 18" style="enable-background:new 0 0 20 18;" xml:space="preserve">
<style type="text/css">
	.st0{fill:#001833;}
</style>
<path id="path-1_1_" class="st0" d="M10,4V0H0v18h20V4H10z M4,16H2v-2h2V16z M4,12H2v-2h2V12z M4,8H2V6h2V8z M4,4H2V2h2V4z M8,16H6
	v-2h2V16z M8,12H6v-2h2V12z M8,8H6V6h2V8z M8,4H6V2h2V4z M18,16h-8v-2h2v-2h-2v-2h2V8h-2V6h8V16z M16,8h-2v2h2V8z M16,12h-2v2h2V12z
	"/>
</svg>

<?xml version="1.0" encoding="UTF-8"?>
<svg width="20px" height="18px" viewBox="0 0 20 18" version="1.1" xmlns="http://www.w3.org/2000/svg" xmlns:xlink="http://www.w3.org/1999/xlink">
    <!-- Generator: Sketch 47.1 (45422) - http://www.bohemiancoding.com/sketch -->
    <title>Mask</title>
    <desc>Created with Sketch.</desc>
    <defs>
        <path d="M10,4 L10,0 L0,0 L0,18 L20,18 L20,4 L10,4 Z M4,16 L2,16 L2,14 L4,14 L4,16 Z M4,12 L2,12 L2,10 L4,10 L4,12 Z M4,8 L2,8 L2,6 L4,6 L4,8 Z M4,4 L2,4 L2,2 L4,2 L4,4 Z M8,16 L6,16 L6,14 L8,14 L8,16 Z M8,12 L6,12 L6,10 L8,10 L8,12 Z M8,8 L6,8 L6,6 L8,6 L8,8 Z M8,4 L6,4 L6,2 L8,2 L8,4 Z M18,16 L10,16 L10,14 L12,14 L12,12 L10,12 L10,10 L12,10 L12,8 L10,8 L10,6 L18,6 L18,16 Z M16,8 L14,8 L14,10 L16,10 L16,8 Z M16,12 L14,12 L14,14 L16,14 L16,12 Z" id="path-1"></path>
    </defs>
    <g id="Icons" stroke="none" stroke-width="1" fill="none" fill-rule="evenodd">
        <g id="product-/-hotel" transform="translate(-2.000000, -3.000000)">
            <g id="hotel">
                <g id="Icon-🎨" transform="translate(2.000000, 3.000000)">
                    <mask id="mask-2" fill="white">
                        <use xlink:href="#path-1"></use>
                    </mask>
                    <use id="Mask" fill="#001833" fill-rule="nonzero" xlink:href="#path-1"></use>
                </g>
            </g>
        </g>
    </g>
</svg>
